dist/img/nogti.svg

<svg width="117" height="110" viewBox="0 0 117 110" fill="none" xmlns="http://www.w3.org/2000/svg">
<path d="M49.4809 101.624C71.2684 101.624 88.9306 84.6487 88.9306 63.7092C88.9306 42.7697 71.2684 25.7949 49.4809 25.7949C27.6935 25.7949 10.0312 42.7697 10.0312 63.7092C10.0312 84.6487 27.6935 101.624 49.4809 101.624Z" fill="#FFF4F4"/>
<path d="M53.8376 107.751H33.5703V60.8862H67.8563V66.465H66.7997V61.9018H34.627V106.735H53.8376V107.751Z" fill="#333333"/>
<path d="M55.8937 108.455L55.8022 107.839C53.879 95.1781 57.831 81.2852 66.3691 70.676C74.1181 61.0214 85.5655 53.8583 98.5628 50.507L99.4927 50.27L99.1968 51.1569C97.7315 55.5712 97.013 60.297 96.3156 64.8738C95.3646 71.1093 94.3783 77.5547 91.49 83.3366C88.482 89.3555 83.2127 94.8463 76.2385 99.2945C69.7082 103.411 62.6002 106.133 56.5137 108.245L55.8937 108.455ZM97.9077 51.7392C85.5162 55.1244 74.6605 62.0505 67.2074 71.2989C58.9793 81.5222 55.0977 94.8463 56.7602 107.074C62.6566 105.043 69.4405 102.368 75.6538 98.4482C82.4659 94.1287 87.6296 88.753 90.539 82.8763C93.3569 77.2365 94.329 70.8656 95.2659 64.7045C95.8297 60.3287 96.7125 55.9962 97.9077 51.7392Z" fill="#333333"/>
<path d="M66.7488 109.714C64.4782 109.717 62.2105 109.556 59.9648 109.234L60.1198 108.232C69.7105 109.588 79.5013 107.973 88.0727 103.621C93.4266 100.913 98.2099 97.1011 102.866 93.4654C106.328 90.6195 109.952 87.9613 113.722 85.5034C106.684 83.4239 99.1245 83.6622 92.2431 86.1805L91.8627 85.2326C99.3282 82.4967 107.557 82.3697 115.11 84.8738L116.145 85.2258L115.216 85.781C111.141 88.3635 107.24 91.1901 103.536 94.244C98.865 97.9407 94.0325 101.759 88.594 104.542C81.8584 107.948 74.3599 109.723 66.7488 109.714Z" fill="#333333"/>
<path d="M61.4018 61.0015H60.3451V31.0323V1.06312C49.264 1.36102 43.4944 0.744911 40.8809 12.0244L40.6766 61.0015H39.8242V11.7062L39.9158 11.5775C42.4377 0.406391 48.2495 0.0678711 60.8734 0.0678711H61.4018V61.0015Z" fill="#333333"/>
<path d="M42.1152 12.0471L42.0666 11.0438C42.1648 11.0522 52.2367 10.4306 58.2888 3.87157L59.0747 4.55043C52.7171 11.43 42.5476 12.0365 42.1152 12.0471Z" fill="#333333"/>
<path d="M43.6075 33.3442H42.5508V45.0164H43.6075V33.3442Z" fill="#333333"/>
<path d="M46.1856 38.5234H45.1289V41.1233H46.1856V38.5234Z" fill="#333333"/>
<path d="M41.6697 104.21H37.0625V67.5278H38.1192V103.194H41.6697V104.21Z" fill="#333333"/>
<path d="M98.8658 45.1311C96.6207 37.0368 92.1834 29.6591 86.0059 23.7495C79.8285 17.8398 72.1315 13.6093 63.6992 11.489L63.9669 10.5073C72.5798 12.6761 80.4413 16.9986 86.7519 23.035C93.0625 29.0714 97.5971 36.6065 99.8943 44.8738L98.8658 45.1311Z" fill="#333333"/>
<path d="M30.4406 101.475C21.0273 97.3866 13.1487 90.6169 7.87186 82.0823C2.59498 73.5477 0.17473 63.6607 0.938881 53.7603C1.70303 43.8598 5.61466 34.4242 12.144 26.7314C18.6734 19.0385 27.505 13.46 37.4429 10.7515L37.7317 11.7264C27.9982 14.3716 19.3466 19.8296 12.9499 27.3604C6.55322 34.8911 2.72093 44.1303 1.97266 53.8251C1.22439 63.5199 3.59634 73.2013 8.76689 81.5567C13.9374 89.9121 21.6565 96.5372 30.8773 100.534L30.4406 101.475Z" fill="#333333"/>
<path d="M58.8986 104.637L57.9688 104.156C66.9351 88.0962 77.8248 73.0995 90.4161 59.4712L91.2051 60.1482C78.6694 73.7172 67.827 88.648 58.8986 104.637Z" fill="#333333"/>
<path d="M18.4308 59.0176H17.3741C17.2762 57.6143 16.8441 56.2515 16.1113 55.0342C15.3784 53.8168 14.3643 52.7776 13.1473 51.9967L12.4922 51.5769L13.1473 51.1504C14.3638 50.3705 15.3776 49.3324 16.1105 48.1163C16.8433 46.9001 17.2756 45.5384 17.3741 44.1362H18.4308C18.5276 45.5388 18.9593 46.9011 19.6923 48.1174C20.4253 49.3338 21.4399 50.3716 22.6575 51.1504L23.3197 51.5769L22.6575 52.017C21.4421 52.7947 20.4289 53.8305 19.696 55.0443C18.9632 56.2581 18.5303 57.6175 18.4308 59.0176ZM14.3238 51.5701C15.9844 52.7862 17.2303 54.4503 17.9024 56.35C18.5691 54.4476 19.816 52.7821 21.4811 51.5701C19.8176 50.3567 18.571 48.6917 17.9024 46.7902C17.2262 48.6916 15.9784 50.3574 14.3167 51.5769L14.3238 51.5701Z" fill="#333333"/>
<path d="M22.6548 66.6682C22.0707 66.6682 21.4998 66.5017 21.0142 66.1896C20.5287 65.8776 20.1503 65.4342 19.9271 64.9154C19.7039 64.3967 19.6459 63.826 19.7604 63.2755C19.8748 62.725 20.1566 62.2196 20.5701 61.8231C20.9837 61.4267 21.5103 61.157 22.0833 61.0483C22.6563 60.9396 23.25 60.9968 23.7892 61.2125C24.3285 61.4283 24.789 61.7929 25.1125 62.2603C25.4359 62.7277 25.6079 63.2768 25.6065 63.8382C25.6065 64.2104 25.5301 64.579 25.3817 64.9228C25.2332 65.2666 25.0157 65.5788 24.7415 65.8417C24.4673 66.1046 24.1419 66.3129 23.7838 66.4547C23.4258 66.5966 23.0421 66.6691 22.6548 66.6682ZM22.6548 62.017C22.28 62.017 21.9136 62.1238 21.602 62.3239C21.2904 62.524 21.0475 62.8085 20.9041 63.1412C20.7606 63.474 20.7231 63.8402 20.7962 64.1935C20.8693 64.5468 21.0498 64.8713 21.3148 65.126C21.5799 65.3807 21.9175 65.5542 22.2851 65.6244C22.6527 65.6947 23.0337 65.6586 23.38 65.5208C23.7262 65.3829 24.0222 65.1495 24.2304 64.85C24.4387 64.5505 24.5498 64.1984 24.5498 63.8382C24.5507 63.5988 24.5023 63.3615 24.4074 63.1402C24.3125 62.9188 24.173 62.7177 23.9968 62.5484C23.8207 62.3791 23.6114 62.245 23.3811 62.1538C23.1508 62.0626 22.9039 62.0161 22.6548 62.017Z" fill="#333333"/>
<path d="M24.3392 58.8961C23.9979 58.8961 23.6642 58.7988 23.3803 58.6165C23.0965 58.4343 22.8753 58.1752 22.7447 57.8721C22.614 57.569 22.5798 57.2355 22.6464 56.9137C22.713 56.592 22.8774 56.2964 23.1188 56.0644C23.3602 55.8325 23.6677 55.6745 24.0025 55.6105C24.3373 55.5465 24.6843 55.5793 24.9997 55.7049C25.3151 55.8304 25.5846 56.043 25.7743 56.3158C25.9639 56.5886 26.0651 56.9093 26.0651 57.2373C26.0651 57.6773 25.8833 58.0992 25.5596 58.4102C25.236 58.7213 24.797 58.8961 24.3392 58.8961ZM24.3392 56.5942C24.2101 56.6009 24.0858 56.6434 23.9813 56.7166C23.8768 56.7897 23.7966 56.8904 23.7504 57.0064C23.7042 57.1225 23.6939 57.2489 23.7209 57.3704C23.7478 57.4919 23.8108 57.6033 23.9022 57.6912C23.9936 57.779 24.1095 57.8396 24.236 57.8655C24.3624 57.8913 24.494 57.8815 24.6147 57.8371C24.7354 57.7926 24.8402 57.7156 24.9163 57.6151C24.9925 57.5147 25.0367 57.3952 25.0437 57.2712C25.0488 57.181 25.034 57.0908 25.0004 57.0064C24.9668 56.9221 24.9151 56.8455 24.8486 56.7816C24.7822 56.7177 24.7025 56.668 24.6147 56.6357C24.5269 56.6034 24.4331 56.5893 24.3392 56.5942Z" fill="#333333"/>
<path d="M15.8526 68.6388C15.4231 68.6401 15.003 68.5189 14.6452 68.2906C14.2875 68.0623 14.0083 67.7371 13.843 67.3562C13.6777 66.9753 13.6337 66.5558 13.7166 66.1509C13.7995 65.7459 14.0056 65.3737 14.3088 65.0814C14.612 64.7891 14.9986 64.5898 15.4196 64.5088C15.8407 64.4278 16.2773 64.4687 16.6742 64.6263C17.0711 64.784 17.4104 65.0512 17.6491 65.3943C17.8878 65.7374 18.0153 66.1408 18.0153 66.5535C18.0153 67.1054 17.7876 67.6347 17.3823 68.0256C16.9769 68.4165 16.4268 68.637 15.8526 68.6388ZM15.8526 65.4906C15.6318 65.4892 15.4157 65.551 15.2316 65.668C15.0474 65.785 14.9037 65.952 14.8186 66.1478C14.7335 66.3435 14.7108 66.5592 14.7535 66.7673C14.7963 66.9754 14.9024 67.1666 15.0585 67.3167C15.2146 67.4667 15.4136 67.5687 15.6301 67.6097C15.8467 67.6508 16.0711 67.629 16.2747 67.5472C16.4784 67.4654 16.6522 67.3273 16.7739 67.1503C16.8957 66.9734 16.96 66.7656 16.9586 66.5535C16.9586 66.2716 16.842 66.0012 16.6346 65.8019C16.4272 65.6026 16.1459 65.4906 15.8526 65.4906Z" fill="#333333"/>
<path d="M73.4265 33.2834C73.3209 31.8802 72.8802 30.5193 72.1386 29.3064C71.397 28.0935 70.3745 27.0611 69.1505 26.2896L68.4883 25.863L69.1505 25.4433C70.369 24.6638 71.3842 23.625 72.1172 22.4073C72.8502 21.1897 73.2814 19.8261 73.3772 18.4224H74.4339C74.5308 19.8258 74.9624 21.1891 75.6953 22.4066C76.4283 23.624 77.4429 24.6631 78.6607 25.4433L79.3158 25.863L78.6607 26.2896C77.4408 27.066 76.4245 28.1033 75.6912 29.3201C74.9579 30.537 74.5276 31.9004 74.4339 33.3037L73.4265 33.2834ZM70.3762 25.836C72.0397 27.0494 73.2863 28.7144 73.9549 30.6159C74.6304 28.7178 75.8756 27.0546 77.5335 25.836C75.8713 24.6213 74.625 22.9567 73.9549 21.056C73.2898 22.9592 72.0425 24.6252 70.3762 25.836Z" fill="#333333"/>
<path d="M78.7525 40.9338C78.1687 40.9338 77.598 40.7675 77.1126 40.4558C76.6272 40.144 76.2489 39.701 76.0255 39.1826C75.8021 38.6643 75.7436 38.0939 75.8575 37.5436C75.9714 36.9933 76.2525 36.4879 76.6653 36.0911C77.0781 35.6944 77.6041 35.4242 78.1766 35.3148C78.7492 35.2053 79.3427 35.2615 79.882 35.4762C80.4214 35.6909 80.8824 36.0545 81.2067 36.521C81.531 36.9875 81.7041 37.536 81.7041 38.0971C81.7023 38.8489 81.3907 39.5694 80.8376 40.101C80.2844 40.6326 79.5347 40.9321 78.7525 40.9338ZM78.7525 36.2826C78.3774 36.2826 78.0107 36.3896 77.6989 36.59C77.3871 36.7904 77.1443 37.0753 77.001 37.4084C76.8578 37.7416 76.8207 38.1082 76.8944 38.4616C76.9681 38.8151 77.1493 39.1396 77.415 39.394C77.6807 39.6485 78.019 39.8214 78.3871 39.8909C78.7552 39.9604 79.1364 39.9234 79.4825 39.7845C79.8287 39.6456 80.1241 39.4111 80.3315 39.1107C80.5389 38.8103 80.6489 38.4575 80.6475 38.0971C80.6456 37.6152 80.4451 37.1537 80.0899 36.8136C79.7348 36.4735 79.2538 36.2826 78.7525 36.2826Z" fill="#333333"/>
<path d="M80.4212 33.1545C80.0799 33.1545 79.7462 33.0573 79.4624 32.875C79.1785 32.6927 78.9573 32.4336 78.8267 32.1305C78.6961 31.8274 78.6619 31.4939 78.7285 31.1721C78.7951 30.8503 78.9595 30.5548 79.2008 30.3228C79.4422 30.0908 79.7497 29.9328 80.0845 29.8688C80.4193 29.8048 80.7664 29.8376 81.0817 29.9632C81.3971 30.0887 81.6667 30.3013 81.8563 30.5741C82.0459 30.8469 82.1472 31.1676 82.1472 31.4957C82.1472 31.9357 81.9653 32.3576 81.6417 32.6687C81.318 32.9798 80.879 33.1545 80.4212 33.1545ZM80.4212 30.8593C80.2903 30.8659 80.1643 30.9094 80.0588 30.9843C79.9534 31.0592 79.8731 31.1622 79.828 31.2805C79.783 31.3989 79.7751 31.5273 79.8053 31.6499C79.8355 31.7726 79.9026 31.884 79.9981 31.9703C80.0937 32.0566 80.2135 32.114 80.3427 32.1354C80.4719 32.1569 80.6048 32.1414 80.7249 32.0908C80.845 32.0403 80.9471 31.9569 81.0183 31.8511C81.0896 31.7453 81.1269 31.6217 81.1257 31.4957C81.1249 31.4089 81.1058 31.3231 81.0695 31.2436C81.0333 31.1641 80.9807 31.0924 80.9149 31.0329C80.849 30.9735 80.7714 30.9274 80.6865 30.8976C80.6017 30.8677 80.5115 30.8547 80.4212 30.8593Z" fill="#333333"/>
<path d="M71.9205 42.8972C71.4928 42.8972 71.0746 42.7753 70.719 42.547C70.3633 42.3186 70.0861 41.9939 69.9224 41.6142C69.7587 41.2344 69.7159 40.8164 69.7994 40.4132C69.8828 40.0101 70.0888 39.6397 70.3913 39.349C70.6937 39.0583 71.0791 38.8604 71.4986 38.7802C71.9181 38.7 72.353 38.7411 72.7481 38.8985C73.1433 39.0558 73.4811 39.3222 73.7187 39.664C73.9564 40.0058 74.0832 40.4077 74.0832 40.8187C74.0813 41.3694 73.8529 41.8971 73.4477 42.2865C73.0425 42.6759 72.4935 42.8955 71.9205 42.8972ZM71.9205 39.7558C71.7018 39.7558 71.4879 39.8181 71.306 39.9349C71.1242 40.0517 70.9824 40.2177 70.8987 40.412C70.815 40.6062 70.7931 40.8199 70.8358 41.0261C70.8784 41.2323 70.9838 41.4217 71.1384 41.5704C71.2931 41.719 71.4902 41.8203 71.7047 41.8613C71.9193 41.9023 72.1417 41.8812 72.3438 41.8008C72.5458 41.7203 72.7186 41.5841 72.8401 41.4093C72.9616 41.2345 73.0265 41.029 73.0265 40.8187C73.0265 40.5368 72.91 40.2665 72.7026 40.0671C72.4952 39.8678 72.2138 39.7558 71.9205 39.7558Z" fill="#333333"/>
<path d="M61.4102 99.0444L61.5511 88.8008L62.6077 88.8143L62.488 97.6226L72.8646 94.2374L73.2028 95.1988L61.4102 99.0444Z" fill="#333333"/>
<path d="M69.6992 86.1197L70.7348 71.0488L71.7844 71.1098L70.8545 84.7115L86.0074 80.2092L86.3174 81.1773L69.6992 86.1197Z" fill="#333333"/>
<path d="M80.9727 71.1975L82.4098 59.7759L83.4594 59.8977L82.2336 69.6268L91.5959 66.0859L91.9833 67.027L80.9727 71.1975Z" fill="#333333"/>
<path d="M81.2679 104.074L80.8945 103.12C85.0525 101.642 88.9893 99.6436 92.6026 97.1753L93.2155 98.0013C89.528 100.522 85.5108 102.563 81.2679 104.074Z" fill="#333333"/>
<path d="M99.4034 92.6081L95.6641 95.1245L96.2702 95.9564L100.009 93.44L99.4034 92.6081Z" fill="#333333"/>
</svg>

<svg xmlns="http://www.w3.org/2000/svg" fill="none" viewBox="0 0 117 110"><path fill="#FFF4F4" d="M49.48 101.624c21.788 0 39.45-16.975 39.45-37.915 0-20.94-17.662-37.914-39.45-37.914-21.786 0-39.449 16.975-39.449 37.914 0 20.94 17.663 37.915 39.45 37.915z"/><path fill="#333" d="M53.838 107.751H33.57V60.886h34.286v5.579H66.8v-4.563H34.627v44.833h19.21v1.016z"/><path fill="#333" d="M55.894 108.455l-.092-.616c-1.923-12.66 2.029-26.554 10.567-37.163 7.75-9.655 19.197-16.818 32.194-20.169l.93-.237-.296.887c-1.466 4.414-2.184 9.14-2.881 13.717-.951 6.235-1.938 12.68-4.826 18.463-3.008 6.019-8.277 11.51-15.251 15.957-6.53 4.117-13.639 6.839-19.725 8.951l-.62.21zm42.014-56.716c-12.392 3.385-23.248 10.312-30.7 19.56-8.229 10.223-12.11 23.547-10.448 35.775 5.897-2.031 12.68-4.706 18.894-8.626 6.812-4.32 11.976-9.695 14.885-15.572 2.818-5.64 3.79-12.01 4.727-18.172a90.965 90.965 0 0 1 2.642-12.965z"/><path fill="#333" d="M66.749 109.714a47.362 47.362 0 0 1-6.784-.48l.155-1.002c9.59 1.356 19.381-.259 27.953-4.611 5.354-2.708 10.137-6.52 14.793-10.156a122.138 122.138 0 0 1 10.856-7.962 34.323 34.323 0 0 0-21.479.677l-.38-.947a35.365 35.365 0 0 1 23.247-.36l1.035.353-.929.555a115.807 115.807 0 0 0-11.68 8.463c-4.671 3.697-9.504 7.515-14.942 10.298a48.319 48.319 0 0 1-21.845 5.172zM61.402 61.002h-1.057V1.063c-11.081.298-16.85-.318-19.464 10.961l-.204 48.977h-.853V11.706l.092-.128C42.438.405 48.25.068 60.873.068h.529v60.934z"/><path fill="#333" d="M42.115 12.047l-.048-1.003c.098.008 10.17-.613 16.222-7.172l.786.678c-6.358 6.88-16.527 7.487-16.96 7.497zM43.608 33.344H42.55v11.672h1.056V33.344zM46.186 38.523h-1.057v2.6h1.057v-2.6zM41.67 104.21h-4.608V67.528h1.057v35.666h3.55v1.016zM98.866 45.131c-2.245-8.094-6.683-15.472-12.86-21.381-6.177-5.91-13.874-10.14-22.307-12.261l.268-.982C72.58 12.677 80.44 17 86.752 23.035c6.31 6.036 10.845 13.571 13.142 21.839l-1.028.257zM30.44 101.475C21.028 97.387 13.15 90.617 7.873 82.082 2.595 73.548.175 63.661.939 53.76c.764-9.9 4.676-19.336 11.205-27.029 6.53-7.693 15.361-13.271 25.299-15.98l.289.975C27.998 14.372 19.347 19.83 12.95 27.36 6.553 34.891 2.72 44.13 1.973 53.825c-.749 9.695 1.623 19.376 6.794 27.732 5.17 8.355 12.89 14.98 22.11 18.977l-.436.941zM58.899 104.637l-.93-.481c8.966-16.06 19.856-31.056 32.447-44.685l.79.677c-12.537 13.57-23.379 28.5-32.307 44.489z"/><path fill="#333" d="M18.43 59.018h-1.056a8.924 8.924 0 0 0-1.263-3.984 9.34 9.34 0 0 0-2.964-3.037l-.655-.42.655-.427a9.335 9.335 0 0 0 2.963-3.034 8.92 8.92 0 0 0 1.264-3.98h1.057a8.896 8.896 0 0 0 1.261 3.981 9.314 9.314 0 0 0 2.965 3.033l.663.427-.663.44a9.321 9.321 0 0 0-2.961 3.027 8.906 8.906 0 0 0-1.265 3.974zm-4.106-7.448a10.12 10.12 0 0 1 3.578 4.78 10.025 10.025 0 0 1 3.58-4.78 10.058 10.058 0 0 1-3.58-4.78 10.18 10.18 0 0 1-3.585 4.787l.007-.007zM22.655 66.668a3.037 3.037 0 0 1-1.64-.478 2.864 2.864 0 0 1-1.088-1.275 2.734 2.734 0 0 1-.167-1.64c.115-.55.397-1.055.81-1.452.414-.396.94-.666 1.513-.775a3.063 3.063 0 0 1 1.706.164c.54.216 1 .58 1.323 1.048a2.759 2.759 0 0 1-.37 3.582c-.275.263-.6.47-.958.613a3.047 3.047 0 0 1-1.13.213zm0-4.651a1.95 1.95 0 0 0-1.053.307 1.84 1.84 0 0 0-.698.817 1.755 1.755 0 0 0-.108 1.053 1.8 1.8 0 0 0 .519.932c.265.255.602.428.97.498s.749.035 1.095-.103.642-.371.85-.671a1.77 1.77 0 0 0-.233-2.302 1.894 1.894 0 0 0-.616-.394 1.955 1.955 0 0 0-.726-.137zM24.34 58.896c-.342 0-.676-.097-.96-.28a1.674 1.674 0 0 1-.635-.744 1.598 1.598 0 0 1-.099-.958 1.64 1.64 0 0 1 .473-.85 1.75 1.75 0 0 1 .884-.453 1.79 1.79 0 0 1 .997.094c.315.125.585.338.774.61.19.274.291.594.291.922 0 .44-.182.862-.505 1.173a1.762 1.762 0 0 1-1.22.486zm0-2.302a.686.686 0 0 0-.359.123.646.646 0 0 0-.23.29.62.62 0 0 0 .151.684.696.696 0 0 0 .712.146.667.667 0 0 0 .302-.222.627.627 0 0 0-.067-.833.671.671 0 0 0-.51-.188zM15.853 68.639c-.43.001-.85-.12-1.208-.348a2.106 2.106 0 0 1-.802-.935 2.01 2.01 0 0 1-.126-1.205 2.06 2.06 0 0 1 .592-1.07c.303-.292.69-.491 1.11-.572.422-.081.858-.04 1.255.117.397.158.736.425.975.768s.366.747.366 1.16c0 .551-.227 1.08-.633 1.472-.405.39-.955.611-1.53.613zm0-3.148c-.221-.002-.437.06-.621.177a1.08 1.08 0 0 0-.413.48 1.031 1.031 0 0 0-.066.62c.043.207.15.399.306.549.156.15.355.252.571.293.217.04.441.019.645-.063.203-.082.377-.22.499-.397a1.04 1.04 0 0 0-.14-1.348 1.13 1.13 0 0 0-.781-.311zM73.427 33.283a8.901 8.901 0 0 0-1.288-3.977 9.32 9.32 0 0 0-2.989-3.016l-.662-.427.662-.42a9.313 9.313 0 0 0 2.967-3.036 8.897 8.897 0 0 0 1.26-3.985h1.057a8.912 8.912 0 0 0 1.261 3.985 9.328 9.328 0 0 0 2.966 3.036l.655.42-.655.427a9.273 9.273 0 0 0-2.97 3.03 8.858 8.858 0 0 0-1.257 3.984l-1.007-.02zm-3.05-7.447a10.058 10.058 0 0 1 3.578 4.78 10.18 10.18 0 0 1 3.579-4.78 10.086 10.086 0 0 1-3.58-4.78 9.998 9.998 0 0 1-3.578 4.78zM78.752 40.934a3.037 3.037 0 0 1-1.64-.478 2.865 2.865 0 0 1-1.087-1.273 2.734 2.734 0 0 1-.168-1.64c.114-.55.395-1.055.808-1.452a2.99 2.99 0 0 1 1.512-.776 3.063 3.063 0 0 1 1.705.161c.54.215 1 .578 1.325 1.045a2.76 2.76 0 0 1 .497 1.576 2.789 2.789 0 0 1-.866 2.004 3.02 3.02 0 0 1-2.085.833zm0-4.651a1.95 1.95 0 0 0-1.053.307 1.84 1.84 0 0 0-.698.818c-.143.334-.18.7-.107 1.054a1.8 1.8 0 0 0 .521.932c.266.255.604.427.972.497s.75.032 1.096-.106a1.88 1.88 0 0 0 .849-.674c.207-.3.317-.653.316-1.014a1.787 1.787 0 0 0-.558-1.283 1.935 1.935 0 0 0-1.338-.531zM80.421 33.154c-.341 0-.675-.097-.959-.279a1.675 1.675 0 0 1-.635-.745 1.6 1.6 0 0 1-.099-.958 1.64 1.64 0 0 1 .473-.85c.241-.231.549-.39.884-.453a1.79 1.79 0 0 1 .997.094c.315.126.585.338.774.611.19.273.291.594.291.922 0 .44-.182.862-.505 1.173a1.762 1.762 0 0 1-1.22.486zm0-2.295a.686.686 0 0 0-.362.125.647.647 0 0 0-.231.296.62.62 0 0 0 .17.69.693.693 0 0 0 .727.12.662.662 0 0 0 .293-.239.625.625 0 0 0-.103-.818.675.675 0 0 0-.494-.174zM71.92 42.897c-.427 0-.845-.122-1.201-.35a2.1 2.1 0 0 1-.797-.933 2.003 2.003 0 0 1-.123-1.2c.084-.404.29-.774.592-1.065a2.19 2.19 0 0 1 1.108-.569c.42-.08.854-.039 1.25.118.394.158.732.424.97.766.237.342.364.744.364 1.155a2.045 2.045 0 0 1-.635 1.467c-.405.39-.954.61-1.527.611zm0-3.141c-.218 0-.432.062-.614.179a1.073 1.073 0 0 0-.407.477 1.024 1.024 0 0 0-.063.614c.042.206.148.396.302.544.155.149.352.25.567.291.214.041.437.02.639-.06s.375-.217.496-.392a1.034 1.034 0 0 0-.137-1.342 1.13 1.13 0 0 0-.782-.311zM61.41 99.044l.141-10.243 1.057.013-.12 8.809 10.377-3.386.338.962-11.793 3.845zM69.7 86.12l1.035-15.071 1.05.06-.93 13.603 15.152-4.503.31.968L69.7 86.12zM80.973 71.198l1.437-11.422 1.05.122-1.226 9.729 9.362-3.541.387.941-11.01 4.17zM81.268 104.074l-.374-.954a51.09 51.09 0 0 0 11.709-5.945l.613.826a52.2 52.2 0 0 1-11.948 6.073zM99.403 92.608l-3.739 2.516.606.832 3.739-2.516-.606-.832z"/></svg>
